mediabuilder/img/social/pnt.svg

<svg width="37" height="36" viewBox="0 0 37 36" fill="none" xmlns="http://www.w3.org/2000/svg">
<circle cx="18.5002" cy="18" r="14.76" fill="white"/>
<path d="M3.65039 18C3.65039 24.0807 7.30687 29.3045 12.5392 31.6012C12.4974 30.5642 12.5317 29.3194 12.7976 28.1912C13.0831 26.9857 14.7084 20.0996 14.7084 20.0996C14.7084 20.0996 14.234 19.1514 14.234 17.7501C14.234 15.5494 15.5094 13.9059 17.0979 13.9059C18.4486 13.9059 19.1012 14.9204 19.1012 16.1353C19.1012 17.4931 18.2351 19.5241 17.7898 21.4053C17.4177 22.9805 18.5796 24.2653 20.1336 24.2653C22.9471 24.2653 24.842 20.6517 24.842 16.3701C24.842 13.1155 22.65 10.6795 18.663 10.6795C14.1585 10.6795 11.3522 14.0387 11.3522 17.791C11.3522 19.0848 11.7337 19.9971 12.3311 20.7036C12.6059 21.0281 12.644 21.1586 12.5446 21.5313C12.4734 21.8045 12.3098 22.4623 12.242 22.723C12.1432 23.0991 11.8384 23.2335 11.4985 23.0947C9.42375 22.2477 8.45748 19.9755 8.45748 17.4214C8.45748 13.2031 12.0151 8.14495 19.0705 8.14495C24.7401 8.14495 28.4716 12.2476 28.4716 16.6516C28.4716 22.4769 25.233 26.8289 20.4591 26.8289C18.8559 26.8289 17.3479 25.9623 16.8313 24.9779C16.8313 24.9779 15.9692 28.3993 15.7866 29.06C15.4717 30.2049 14.8555 31.3493 14.292 32.2412C15.6583 32.6452 17.0757 32.8503 18.5006 32.8501C26.7008 32.8501 33.3497 26.2016 33.3497 18C33.3497 9.7987 26.7008 3.15015 18.5006 3.15015C10.2995 3.15015 3.65039 9.7987 3.65039 18Z" fill="#E60023"/>
</svg>

<svg width="37" height="36" fill="none" xmlns="http://www.w3.org/2000/svg"><circle cx="18.5" cy="18" r="14.76" fill="#fff"/><path d="M3.65 18c0 6.08 3.657 11.305 8.89 13.601-.043-1.037-.008-2.282.258-3.41l1.91-8.091s-.474-.949-.474-2.35c0-2.2 1.275-3.844 2.864-3.844 1.35 0 2.003 1.014 2.003 2.23 0 1.357-.866 3.388-1.311 5.27-.372 1.575.79 2.86 2.344 2.86 2.813 0 4.708-3.614 4.708-7.896 0-3.255-2.192-5.69-6.179-5.69-4.505 0-7.31 3.359-7.31 7.111 0 1.294.38 2.206.978 2.913.275.324.313.455.214.827-.072.274-.235.931-.303 1.192-.099.376-.404.51-.744.372-2.074-.847-3.04-3.12-3.04-5.674 0-4.218 3.557-9.276 10.612-9.276 5.67 0 9.402 4.103 9.402 8.507 0 5.825-3.239 10.177-8.013 10.177-1.603 0-3.111-.867-3.628-1.851 0 0-.862 3.421-1.044 4.082-.315 1.145-.932 2.29-1.495 3.181 1.366.404 2.784.61 4.209.61C26.7 32.85 33.35 26.2 33.35 18S26.7 3.15 18.5 3.15 3.65 9.8 3.65 18z" fill="#E60023"/></svg>
